SeniorVlogger.Web/ClientApp/src/assets/svg/angularjs.svg

<svg xmlns="http://www.w3.org/2000/svg" viewBox="0 0 48 48"><path fill="#bdbdbd" d="M23.933 2L3 9.285l3.308 27.123L23.955 46l17.738-9.722L45 9.156z"/><path fill="#b71c1c" d="M42.818 10.527L24 4.135v39.56l15.832-8.678z"/><path fill="#dd2c00" d="M23.941 4.115l-18.76 6.529 2.987 24.499 15.783 8.578.049-.026V4.135z"/><path fill="#bdbdbd" d="M24 5.996v9.508L32.578 34h4.409z"/><path fill="#eee" d="M11.013 34h4.409L24 15.504V5.996z"/><path fill="#bdbdbd" d="M24 24h6v4h-6z"/><path fill="#eee" d="M18 24h6v4h-6z"/></svg>

<svg xmlns="http://www.w3.org/2000/svg" viewBox="0 0 48 48"><path fill="#bdbdbd" d="M23.933 2L3 9.285 6.308 36.408 23.955 46 41.693 36.278 45 9.156z"/><path fill="#b71c1c" d="M42.818 10.527L24 4.135 24 43.695 39.832 35.017z"/><path fill="#dd2c00" d="M23.941 4.115L5.181 10.644 8.168 35.143 23.951 43.721 24 43.695 24 4.135z"/><path fill="#bdbdbd" d="M24 5.996L24 15.504 32.578 34 36.987 34z"/><path fill="#eee" d="M11.013 34L15.422 34 24 15.504 24 5.996z"/><path fill="#bdbdbd" d="M24 24H30V28H24z"/><path fill="#eee" d="M18 24H24V28H18z"/></svg>
